X:1
T:Title
%%score { 1 | 2 }
L:1/8
Q:1/4=84
M:6/8
K:Bb
V:1 treble nm="Grand Piano"
V:2 bass 
V:1
 [DF][Fd][Ec] [DB][FA][EG] | [DF]2 [B,D] [DF]3 | FAG FG[FA] | [FB]2 [Fc] [Fd]3 | %4
w: Grant~Colfax~Tullar * * * * *||||
 [GB][^FA][GB] [Gc][GB][EG] | [DF]2 [B,D] [DF]3 | A_A=A [Fc][=EB][FA] |[M:5/8] [=EA]2 [EG] F2 | %8
w: ||||
[M:1/8] F/F/ |[M:3/4] [Dd]2 [DA] [Dc]2 [DB] | [EB][EA]- [EA]3 C/D/ | E2 F A2 G | %12
w: ||||
[M:5/8] [B,DF]-[B,DF]- [B,DF]3 |[M:1/8] F/F/ |[M:3/4] [B,FB]2 [B,FB] [Fc]2 [FB] | BG- G3 A/B/ | %16
w: ||||
 d2 B c2 A | [DB]6 |] %18
w: ||
V:2
 [B,,B,][B,,B,][B,,F,] [B,,F,][B,,G,][B,,A,] | [B,,B,]2 [B,,F,] [B,,B,]3 | %2
 [F,A,E][F,CE][F,B,E] [F,A,E][F,B,E][E,C] | [D,B,]2 [C,A,] [B,,B,]3 | %4
 [E,B,][E,C][E,B,] [E,E][E,E][E,B,] | [B,,B,]2 [B,,F,] [B,,B,]3 | %6
 [C,F,C][C,=E,C][C,F,C] [C,A,][C,G,][C,A,] |[M:5/8] [C,B,]2 [C,B,] [F,A,]2 | %8
[M:1/8] [F,A,E]/[F,A,E]/ |[M:3/4] [B,,F,]2 [B,,F,] [B,,F,]2 [B,,F,] | %10
 [C,F,][C,F,]- [C,F,]3 [F,A,]/[F,B,]/ | [F,A,C]2 [F,A,C] [F,CE]2 [F,A,E] |[M:5/8] B,,-B,,- B,,3 | %13
[M:1/8] F,/F,/ |[M:3/4] D,2 D, [D,_A,]2 [D,A,] | [E,G,E][E,B,E]- [E,B,E]3 [=E,A,_D]/[E,G,D]/ | %16
 [F,B,D]2 [F,B,D] [F,A,E]2 [F,CE] | [B,,B,]6 |] %18

